X:22
T:Up in the Air
C:Kevin Burke
R:Jig
A:Ireland
Z:id:hn-jig-27
M:6/8
K:Bm
FBB BAB|c2c AFE|FBB BAB|cBA B2A|FBB BAB|~c3 ABc|def ecA|1 FBB B2A:|2 FBB B2c||
|:d2d ede|fBB BAB|d2d ede|fBB B2c|
dcd ede|1 fdB def|gfe dBA|FBB B2c:|2 fgf ecA|fgf ecA|FBB B2A||
